src/icon/brand/card-mastercard/icon_card-mastercard_xxl_white.svg

<?xml version="1.0" encoding="UTF-8"?>
<svg width="48px" height="48px" viewBox="0 0 48 48" version="1.1" xmlns="http://www.w3.org/2000/svg" xmlns:xlink="http://www.w3.org/1999/xlink">
    <!-- Generator: Sketch 49 (51002) - http://www.bohemiancoding.com/sketch -->
    <title>icon_mastercard_xxl_white</title>
    <desc>Created with Sketch.</desc>
    <defs></defs>
    <g id="Page-1" stroke="none" stroke-width="1" fill="none" fill-rule="evenodd">
        <g id="card_mastercard_xxl_white">
            <polygon id="Shape" points="0 0 48 0 48 48 0 48"></polygon>
            <path d="M24.0001459,13.2419537 C23.8647261,13.3480903 23.7322249,13.4574256 23.6026421,13.5696686 C21.3886452,15.4891416 19.9868752,18.3144105 19.9868752,21.4679757 C19.9868752,24.621541 21.3886452,27.4471007 23.6026421,29.3662828 C23.7322249,29.4788167 23.8647261,29.5881519 24.0001459,29.6942885 C24.1355657,29.5881519 24.268067,29.4788167 24.3976497,29.3662828 C26.6116467,27.4471007 28.0131248,24.621541 28.0131248,21.4679757 C28.0131248,18.3144105 26.6116467,15.4891416 24.3976497,13.5696686 C24.268067,13.4574256 24.1355657,13.3480903 24.0001459,13.2419537 Z M30.4932917,11 C28.342335,11 26.3425582,11.64438 24.6769531,12.7493637 C24.7621741,12.8188613 24.8485626,12.8874866 24.9308652,12.9590198 C27.4063624,15.1044328 28.8259354,18.2059476 28.8259354,21.4679757 C28.8259354,24.7302947 27.4063624,27.8315187 24.931157,29.9772225 C24.8491463,30.0484649 24.7621741,30.1170902 24.6769531,30.1865878 C26.3425582,31.2918623 28.342335,31.9362423 30.4932917,31.9362423 C36.2962051,31.9362423 41,27.2496575 41,21.4682665 C41,15.6865848 36.2962051,11 30.4932917,11 Z M23.0691348,29.9772225 C23.1511455,30.0484649 23.2378259,30.1170902 23.3230469,30.1865878 C21.6577337,31.2918623 19.657665,31.9362423 17.5067083,31.9362423 C11.7037949,31.9362423 7,27.2496575 7,21.4679757 C7,15.6868756 11.7037949,11 17.5067083,11 C19.657665,11 21.6574418,11.64438 23.3230469,12.7493637 C23.2378259,12.8188613 23.1517292,12.8874866 23.0691348,12.958729 C20.5936376,15.1044328 19.1743564,18.2059476 19.1743564,21.4679757 C19.1743564,24.7302947 20.5936376,27.8318094 23.0691348,29.9772225 Z M40.6710817,27.9551024 L40.6710817,27.5485847 L40.5645553,27.5485847 L40.441977,27.8280292 L40.3196906,27.5485847 L40.2131643,27.5485847 L40.2131643,27.9551024 L40.2884624,27.9551024 L40.2884624,27.648324 L40.4031606,27.9126477 L40.4810853,27.9126477 L40.5957836,27.6477424 L40.5957836,27.9551024 L40.6710817,27.9551024 Z M39.9969012,27.9551024 L39.9969012,27.6177916 L40.1329047,27.6177916 L40.1329047,27.5491663 L39.7855996,27.5491663 L39.7855996,27.6177916 L39.9221868,27.6177916 L39.9221868,27.9551024 L39.9969012,27.9551024 Z M40.3252358,36.9927058 L40.3252358,37.0610403 L40.3882761,37.0610403 C40.4025769,37.0610403 40.414251,37.0581325 40.4230066,37.0526076 C40.4314703,37.0467918 40.4355563,37.0380683 40.4355563,37.0264369 C40.4355563,37.0150963 40.4314703,37.0066635 40.4230066,37.0008478 C40.414251,36.9956137 40.4025769,36.9927058 40.3882761,36.9927058 L40.3252358,36.9927058 Z M40.3888598,36.9444355 C40.422131,36.9444355 40.4472304,36.9517051 40.4653253,36.9665351 C40.4834202,36.9813652 40.4921758,37.0011386 40.4921758,37.0264369 C40.4921758,37.0476642 40.4848794,37.0651113 40.4708705,37.079069 C40.4565697,37.0924451 40.43614,37.1011687 40.4101651,37.1043673 L40.4942187,37.2011988 L40.42826,37.2011988 L40.3500433,37.1046581 L40.3252358,37.1046581 L40.3252358,37.2011988 L40.2700756,37.2011988 L40.2700756,36.9444355 L40.3888598,36.9444355 Z M40.3728079,37.2890159 C40.4025769,37.2890159 40.4303029,37.283491 40.4562778,37.2724412 C40.4822528,37.2611005 40.5047254,37.2456889 40.5239877,37.2259155 C40.5438337,37.2067237 40.5587183,37.1840425 40.5698087,37.1578718 C40.5811909,37.1314103 40.5867361,37.1037857 40.5867361,37.0738349 C40.5867361,37.0441748 40.5811909,37.0162594 40.5698087,36.989798 C40.5587183,36.9636273 40.5438337,36.940946 40.5239877,36.9214634 C40.5047254,36.9019808 40.4822528,36.8865692 40.4562778,36.8755194 C40.4303029,36.8644695 40.4025769,36.8592354 40.3728079,36.8592354 C40.3421633,36.8592354 40.3135617,36.8644695 40.287295,36.8755194 C40.2607363,36.8865692 40.2379718,36.9019808 40.2181258,36.9214634 C40.1988635,36.940946 40.1833953,36.9636273 40.1723049,36.989798 C40.1612145,37.0162594 40.1556692,37.0441748 40.1556692,37.0738349 C40.1556692,37.1037857 40.1612145,37.1314103 40.1723049,37.1578718 C40.1833953,37.1840425 40.1988635,37.2067237 40.2181258,37.2259155 C40.2379718,37.2456889 40.2607363,37.2611005 40.287295,37.2724412 C40.3135617,37.283491 40.3421633,37.2890159 40.3728079,37.2890159 Z M40.3728079,36.7975889 C40.4113325,36.7975889 40.448106,36.8045678 40.4825446,36.8191071 C40.5166914,36.8336463 40.5464604,36.8531289 40.5721435,36.8784272 C40.5975347,36.9034348 40.6176726,36.9328041 40.6325571,36.9665351 C40.6471497,36.9999754 40.654446,37.035742 40.654446,37.0738349 C40.654446,37.1116369 40.6471497,37.1474035 40.6325571,37.1808438 C40.6176726,37.2139933 40.5975347,37.2433626 40.5721435,37.2683702 C40.5464604,37.2936685 40.5166914,37.3131511 40.4825446,37.3279811 C40.448106,37.3428112 40.4113325,37.3500808 40.3728079,37.3500808 C40.332824,37.3500808 40.2954668,37.3428112 40.2607363,37.3279811 C40.2262977,37.3131511 40.195945,37.2936685 40.1708456,37.2683702 C40.1451625,37.2433626 40.1253165,37.2139933 40.110432,37.1808438 C40.0958394,37.1474035 40.0885431,37.1116369 40.0885431,37.0738349 C40.0885431,37.035742 40.0958394,36.9999754 40.110432,36.9665351 C40.1253165,36.9328041 40.1451625,36.9034348 40.1708456,36.8784272 C40.195945,36.8531289 40.2262977,36.8336463 40.2607363,36.8191071 C40.2954668,36.8045678 40.332824,36.7975889 40.3728079,36.7975889 Z M14.3465239,35.8103733 C14.3465239,35.3221449 14.6675623,34.9208614 15.1926058,34.9208614 C15.694593,34.9208614 16.0331425,35.3046978 16.0331425,35.8103733 C16.0331425,36.3166303 15.694593,36.7001759 15.1926058,36.7001759 C14.6675623,36.7001759 14.3465239,36.2988924 14.3465239,35.8103733 Z M16.6051744,35.8103733 L16.6051744,34.4207109 L15.9981201,34.4207109 L15.9981201,34.7580217 C15.805789,34.5082372 15.513936,34.3512132 15.1170159,34.3512132 C14.3348498,34.3512132 13.7219585,34.9615713 13.7219585,35.8103733 C13.7219585,36.659466 14.3348498,37.2701149 15.1170159,37.2701149 C15.513936,37.2701149 15.805789,37.1130909 15.9981201,36.8630156 L15.9981201,37.2006172 L16.6051744,37.2006172 L16.6051744,35.8103733 Z M37.1023031,35.8103733 C37.1023031,35.3221449 37.4230495,34.9208614 37.9483849,34.9208614 C38.4503721,34.9208614 38.7889216,35.3046978 38.7889216,35.8103733 C38.7889216,36.3166303 38.4503721,36.7001759 37.9483849,36.7001759 C37.4230495,36.7001759 37.1023031,36.2988924 37.1023031,35.8103733 Z M39.3609535,35.8103733 L39.3609535,33.3043866 L38.7538992,33.3043866 L38.7538992,34.7580217 C38.5612763,34.5082372 38.2694232,34.3512132 37.8725032,34.3512132 C37.0906289,34.3512132 36.4777376,34.9615713 36.4777376,35.8103733 C36.4777376,36.659466 37.0906289,37.2701149 37.8725032,37.2701149 C38.2694232,37.2701149 38.5612763,37.1130909 38.7538992,36.8630156 L38.7538992,37.2006172 L39.3609535,37.2006172 L39.3609535,35.8103733 Z M24.1338146,34.8917829 C24.5251895,34.8917829 24.7758912,35.1360424 24.8400989,35.5661137 L23.3927998,35.5661137 C23.4570075,35.1651209 23.702164,34.8917829 24.1338146,34.8917829 Z M24.1457806,34.3512132 C23.3285922,34.3512132 22.7565603,34.9441242 22.7565603,35.8103733 C22.7565603,36.6943602 23.3519404,37.2701149 24.18664,37.2701149 C24.6066165,37.2701149 24.9918625,37.1654322 25.3304119,36.8804627 L25.0327219,36.4326535 C24.7992395,36.6190468 24.5018412,36.7234387 24.2216624,36.7234387 C23.8305793,36.7234387 23.4745187,36.5431519 23.3866709,36.0430014 L25.4588273,36.0430014 C25.4646643,35.9673973 25.4705014,35.8920839 25.4705014,35.8103733 C25.4646643,34.9441242 24.9276548,34.3512132 24.1457806,34.3512132 Z M31.4701237,35.8103733 C31.4701237,35.3221449 31.791162,34.9208614 32.3164974,34.9208614 C32.8184846,34.9208614 33.1567422,35.3046978 33.1567422,35.8103733 C33.1567422,36.3166303 32.8184846,36.7001759 32.3164974,36.7001759 C31.791162,36.7001759 31.4701237,36.2988924 31.4701237,35.8103733 Z M33.7287741,35.8103733 L33.7287741,34.4207109 L33.1217199,34.4207109 L33.1217199,34.7580217 C32.9293887,34.5082372 32.6375357,34.3512132 32.2403238,34.3512132 C31.4584496,34.3512132 30.8455583,34.9615713 30.8455583,35.8103733 C30.8455583,36.659466 31.4584496,37.2701149 32.2403238,37.2701149 C32.6375357,37.2701149 32.9293887,37.1130909 33.1217199,36.8630156 L33.1217199,37.2006172 L33.7287741,37.2006172 L33.7287741,35.8103733 Z M28.0440612,35.8103733 C28.0440612,36.6539411 28.6338962,37.2701149 29.5325116,37.2701149 C29.9527799,37.2701149 30.2326669,37.1773544 30.5364859,36.9386198 L30.2446329,36.4503914 C30.0169876,36.6129404 29.7776681,36.7001759 29.5150004,36.7001759 C29.0305244,36.6943602 28.6747556,36.345418 28.6747556,35.8103733 C28.6747556,35.2756193 29.0305244,34.9266771 29.5150004,34.9208614 C29.7776681,34.9208614 30.0169876,35.0080969 30.2446329,35.1709366 L30.5364859,34.6824175 C30.2326669,34.4439737 29.9527799,34.3512132 29.5325116,34.3512132 C28.6338962,34.3512132 28.0440612,34.967387 28.0440612,35.8103733 Z M35.8648463,34.3512132 C35.5146227,34.3512132 35.2869773,34.5137621 35.1296686,34.7580217 L35.1296686,34.4207109 L34.5281595,34.4207109 L34.5281595,37.2006172 L35.1352138,37.2006172 L35.1352138,35.6420086 C35.1352138,35.1825681 35.3336738,34.9266771 35.7305939,34.9266771 C35.8531722,34.9266771 35.9815875,34.9441242 36.1100028,34.9964655 L36.2967888,34.4268174 C36.1625364,34.374476 35.9874246,34.3512132 35.8648463,34.3512132 Z M19.6048396,34.6417076 C19.3129866,34.4500802 18.9105213,34.3512132 18.4669047,34.3512132 C17.7606204,34.3512132 17.3056216,34.6882332 17.3056216,35.2407251 C17.3056216,35.69435 17.6441711,35.9735037 18.2684447,36.0607393 L18.5544606,36.1011584 C18.8868812,36.1476841 19.0447737,36.2349196 19.0447737,36.3919436 C19.0447737,36.6074154 18.8229654,36.7292544 18.4085341,36.7292544 C17.9882658,36.7292544 17.6847387,36.595784 17.4804416,36.4384692 L17.1947175,36.909832 C17.527138,37.15351 17.9476982,37.2701149 18.4026971,37.2701149 C19.2082114,37.2701149 19.6751762,36.8920941 19.6751762,36.3631559 C19.6751762,35.8746368 19.3074414,35.6187458 18.7003871,35.5312195 L18.4143712,35.4908003 C18.1517035,35.4559061 17.9415693,35.4035648 17.9415693,35.2174623 C17.9415693,35.0139126 18.1400294,34.8917829 18.4730336,34.8917829 C18.8288025,34.8917829 19.173189,35.0255441 19.3424638,35.1302267 L19.6048396,34.6417076 Z M27.4314618,34.3512132 C27.08153,34.3512132 26.8535928,34.5137621 26.6959922,34.7580217 L26.6959922,34.4207109 L26.0950668,34.4207109 L26.0950668,37.2006172 L26.7018292,37.2006172 L26.7018292,35.6420086 C26.7018292,35.1825681 26.9005811,34.9266771 27.2972094,34.9266771 C27.4197876,34.9266771 27.548203,34.9441242 27.6766183,34.9964655 L27.8631124,34.4268174 C27.72886,34.374476 27.55404,34.3512132 27.4314618,34.3512132 Z M22.2548649,34.4207109 L21.2625647,34.4207109 L21.2625647,33.5777246 L20.6499652,33.5777246 L20.6499652,34.4207109 L20.0834785,34.4207109 L20.0834785,34.9732027 L20.6499652,34.9732027 L20.6499652,36.2410261 C20.6499652,36.8865692 20.900667,37.2701149 21.6186254,37.2701149 C21.8810012,37.2701149 22.1845284,37.188695 22.3771513,37.0552246 L22.2023314,36.5373362 C22.0213825,36.6423097 21.8226306,36.6943602 21.6653219,36.6943602 C21.3617947,36.6943602 21.2625647,36.5085485 21.2625647,36.2293947 L21.2625647,34.9732027 L22.2548649,34.9732027 L22.2548649,34.4207109 Z M13.184949,37.2006172 L13.184949,35.4559061 C13.184949,34.7987316 12.7649725,34.3567381 12.0881654,34.3512132 C11.7321047,34.3451067 11.3643699,34.4556051 11.1072474,34.8452572 C10.9149163,34.5370249 10.6113891,34.3512132 10.1852837,34.3512132 C9.88788552,34.3512132 9.59603252,34.4384488 9.36809532,34.7641282 L9.36809532,34.4207109 L8.76133291,34.4207109 L8.76133291,37.2006172 L9.37422423,37.2006172 L9.37422423,35.6594557 C9.37422423,35.1767523 9.642729,34.9208614 10.0568684,34.9208614 C10.4593337,34.9208614 10.6639227,35.1825681 10.6639227,35.6533493 L10.6639227,37.2006172 L11.2765221,37.2006172 L11.2765221,35.6594557 C11.2765221,35.1767523 11.556701,34.9208614 11.9594582,34.9208614 C12.3738895,34.9208614 12.5723495,35.1825681 12.5723495,35.6533493 L12.5723495,37.2006172 L13.184949,37.2006172 Z" id="Page-1-Copy" fill="#FFFFFF"></path>
        </g>
    </g>
</svg>

<svg width="48" height="48" viewBox="0 0 48 48" xmlns="http://www.w3.org/2000/svg"><g fill="none" fill-rule="evenodd"><path d="M0 0h48v48H0z"/><path d="M24 13.242a10.425 10.425 0 0 0-4.013 8.226A10.425 10.425 0 0 0 24 29.694a10.425 10.425 0 0 0 4.013-8.226A10.425 10.425 0 0 0 24 13.242zM30.493 11c-2.15 0-4.15.644-5.816 1.75.085.069.172.137.254.209a11.259 11.259 0 0 1 3.895 8.509 11.26 11.26 0 0 1-3.895 8.51c-.082.07-.169.14-.254.209a10.484 10.484 0 0 0 5.816 1.75C36.296 31.936 41 27.25 41 21.467 41 15.687 36.296 11 30.493 11zM23.07 29.977c.082.071.169.14.254.21a10.483 10.483 0 0 1-5.816 1.75C11.704 31.936 7 27.25 7 21.467 7 15.687 11.704 11 17.507 11c2.15 0 4.15.644 5.816 1.75-.085.069-.171.137-.254.209a11.26 11.26 0 0 0-3.895 8.509c0 3.262 1.42 6.364 3.895 8.51zm17.602-2.022v-.406h-.106l-.123.279-.122-.28h-.107v.407h.075v-.307l.115.265h.078l.115-.265v.307h.075zm-.674 0v-.337h.136v-.069h-.347v.069h.136v.337h.075zm.328 9.038v.068h.063a.065.065 0 0 0 .035-.008c.008-.006.013-.015.013-.027a.029.029 0 0 0-.013-.025.067.067 0 0 0-.035-.008h-.063zm.064-.049c.033 0 .058.008.076.023a.073.073 0 0 1 .027.06.071.071 0 0 1-.021.052.106.106 0 0 1-.06.025l.083.097h-.066l-.078-.096h-.025v.096h-.055v-.257h.119zm-.016.345a.21.21 0 0 0 .197-.131.209.209 0 0 0 .017-.084.21.21 0 0 0-.063-.153.21.21 0 0 0-.151-.062.218.218 0 0 0-.155.062.217.217 0 0 0 .07.351.219.219 0 0 0 .085.017zm0-.491a.28.28 0 0 1 .281.276.265.265 0 0 1-.082.194.29.29 0 0 1-.2.082.282.282 0 0 1-.283-.276.265.265 0 0 1 .082-.196.276.276 0 0 1 .202-.08zm-26.026-.988c0-.488.32-.89.846-.89.502 0 .84.385.84.89 0 .507-.338.89-.84.89-.525 0-.846-.401-.846-.89zm2.258 0v-1.39h-.607v.338c-.192-.25-.484-.407-.881-.407-.782 0-1.395.61-1.395 1.46 0 .848.613 1.46 1.395 1.46.397 0 .689-.158.881-.408v.338h.607v-1.39zm20.497 0c0-.488.321-.89.846-.89.502 0 .84.385.84.89 0 .507-.338.89-.84.89-.525 0-.846-.401-.846-.89zm2.259 0v-2.506h-.607v1.454c-.193-.25-.485-.407-.881-.407-.782 0-1.395.61-1.395 1.46 0 .848.613 1.46 1.395 1.46.396 0 .688-.158.88-.408v.338h.608v-1.39zm-15.227-.918c.391 0 .642.244.706.674h-1.447c.064-.4.31-.674.74-.674zm.012-.54c-.817 0-1.39.592-1.39 1.458 0 .884.596 1.46 1.43 1.46.42 0 .806-.105 1.144-.39l-.297-.447a1.33 1.33 0 0 1-.811.29c-.391 0-.747-.18-.835-.68h2.072c.006-.076.012-.15.012-.233-.006-.866-.543-1.459-1.325-1.459zm7.324 1.458c0-.488.321-.89.846-.89.502 0 .84.385.84.89 0 .507-.338.89-.84.89-.525 0-.846-.401-.846-.89zm2.259 0v-1.39h-.607v.338c-.193-.25-.484-.407-.882-.407-.782 0-1.394.61-1.394 1.46 0 .848.612 1.46 1.394 1.46.398 0 .69-.158.882-.408v.338h.607v-1.39zm-5.685 0c0 .844.59 1.46 1.489 1.46.42 0 .7-.093 1.003-.331l-.291-.489c-.228.163-.467.25-.73.25-.484-.006-.84-.355-.84-.89 0-.534.356-.883.84-.89.263 0 .502.088.73.25l.291-.488c-.303-.238-.583-.33-1.003-.33-.9 0-1.489.615-1.489 1.458zm7.82-1.459a.822.822 0 0 0-.734.407v-.337h-.602v2.78h.607v-1.559c0-.46.199-.715.596-.715.122 0 .25.017.379.07l.187-.57a1.301 1.301 0 0 0-.432-.076zm-16.26.29c-.291-.19-.693-.29-1.137-.29-.706 0-1.161.337-1.161.89 0 .453.338.733.962.82l.286.04c.333.047.49.134.49.29 0 .216-.221.338-.635.338-.42 0-.724-.133-.929-.29l-.285.47c.332.245.753.361 1.208.361.805 0 1.272-.378 1.272-.907 0-.488-.368-.744-.975-.832l-.286-.04c-.262-.035-.472-.087-.472-.274 0-.203.198-.325.531-.325.356 0 .7.134.87.238l.262-.488zm7.827-.29a.824.824 0 0 0-.735.407v-.337h-.6v2.78h.606v-1.559c0-.46.199-.715.595-.715.123 0 .251.017.38.07l.186-.57a1.3 1.3 0 0 0-.432-.076zm-5.176.07h-.992v-.843h-.613v.843h-.567v.552h.567v1.268c0 .646.25 1.03.969 1.03.262 0 .566-.082.758-.216l-.175-.518c-.18.105-.38.157-.537.157-.303 0-.402-.185-.402-.465v-1.256h.992v-.552zm-9.07 2.78v-1.745c0-.657-.42-1.1-1.097-1.105-.356-.006-.724.105-.98.494-.193-.308-.497-.494-.923-.494-.297 0-.589.087-.817.413v-.343h-.607v2.78h.613v-1.542c0-.482.269-.738.683-.738.402 0 .607.262.607.732v1.548h.613v-1.542c0-.482.28-.738.682-.738.415 0 .613.262.613.732v1.548h.613z" fill="#FFF"/></g></svg>
